!!!!SEGMENT: pl-kk--kk-i-3--002_anonim--in-festo-soleni-habemus-ad-dominum.krn
!!!cenid: 15xx:567
!!!COM: Anonim
!!!COM-rismid: pe30004985
!!!CDT:
!!!CNT:
!!!OTL: In festo Soleni/Habemus ad Dominum
!!!PDT:
!!!AGN:
!!!SMS-siglum: PL-Kk
!!!SMS-shelfmark: Kk.I.3
!!!SMS-shelfwork: 002 W
!!!SMS-variant:
!!!SMS-altvar:
!!!NIFC-rismid: 1001145495
!!!URL-scan: http://repozytorium.nifc.pl/skany/pl-kk-nut--i-3
!!!ONB-nifc: UWAGA: Discantus (s. 1v cała, skan 0004), Tenor (s. 1v cała, skan 0174), Bassus (s. 1v cała, skan 0305)
**kern	**text	**kern	**text	**kern	**text
*part3	*part3	*part2	*part2	*part1	*part1
*staff3	*staff3	*staff2	*staff2	*staff1	*staff1
*I"Bassus	*	*I"Tenor	*	*I"Discantus	*
*I'B	*	*I'T	*	*I'A	*
*Ibass	*	*Itenor	*	*Ialto	*
*ICvox	*	*ICvox	*	*ICvox	*
*clefF4	*	*clefC4	*	*clefC3	*
*k[]	*	*k[]	*	*k[b-]	*
*a:	*	*a:	*	*a:	*
=1-	=1-	=1-	=1-	=1-	=1-
!LO:TX:B:t=In ſo\nlemni\nfeſto:color=red	!	!LO:TX:B:t=In feſto\nSole(m)ni:color=red	!	!LO:TX:B:t=In feſto\nSole(m)ni:color=red	!
1F	Ha-	1F	Ha-	1c	Ha-
*	*	*lig	*	*2\right	*
!	!	!	!	!	!
2D/	-be-	1F	-be-	2d/	-be-
2F/	-mus	.	.	1c\	-mus
=2-	=2-	=2-	=2-	=2-	=2-
1C	ad	1G	.	.	.
*	*	*Xlig	*	*	*
.	.	.	.	2e\	.
*	*	*lig	*	*	*
2FF/	do-	1A	.	1f	.
1F\	.	.	.	.	.
=3-	=3-	=3-	=3-	=3-	=3-
!	!	!LO:SIC:v:s=1B-	!	!	!
.	.	1B	.	2d/	.
*	*	*Xlig	*	*	*
2E/	.	.	.	2e/	.
1F	.	1A	.	1c	.
=4-	=4-	=4-	=4-	=4-	=4-
1FF	.	1A	-mus	2c/	ad
.	.	.	.	1f	do-
*	*	*lig	*	*	*
1C	.	1G	ad	.	.
.	.	.	.	2e\	.
=5-	=5-	=5-	=5-	=5-	=5-
2AA/	.	1A	.	1f	.
*	*	*Xlig	*	*	*
2FF/	.	.	.	.	.
!	!	!LO:SIC:v:s=0B-	!	!LO:SIC:v:t=custos g	!
0GG	.	0B	do-	1d	.
!	!	!	!	!LO:LB:g=original	!
=6-	=6-	=6-	=6-	=6-	=6-
.	.	.	.	1g	.
1FF	.	1A	.	2c/	.
.	.	.	.	2d/	.
=7-	=7-	=7-	=7-	=7-	=7-
!LO:SIC:v:t=custos GG	!	!	!	!	!
1C	.	1G	.	2e/	.
.	.	.	.	1g	.
!LO:LB:g=original	!	!	!	!	!
2GG/	.	0G	-mi-	.	.
!LO:SIC:v:s=2BB-/	!	!	!	!	!
2BB/	.	.	.	1f\	-mi-
=8-	=8-	=8-	=8-	=8-	=8-
1C	-mi-	.	.	.	.
.	.	.	.	2e\	.
1FF;l	-n(um)	1F;l	-n(um)	1fl;<	-num
*clefF3	*	*	*	*	*
!	!	!LO:LB:g=original	!	!	!
=10-	=10-	=10-	=10-	=10-	=10-
*lig	*	*lig	*	*	*
1F	Di-	1F	Dig-	0c	Di-
1E	.	1G	.	.	.
*Xlig	*	*Xlig	*	*	*
=11-	=11-	=11-	=11-	=11-	=11-
*lig	*	*lig	*	*	*
1D	-gnum	1A	.	1d	-gnum
!LO:SIC:v:s=1BB-	!	!LO:SIC:v:s=1B-	!	!	!
1BB	.	1B	.	1f	.
*Xlig	*	*Xlig	*	*	*
=12-	=12-	=12-	=12-	=12-	=12-
1F	et	1A	-n(um)	1f	.
1c	iu-	1A	et	2e\	.
.	.	.	.	2f\	.
=13-	=13-	=13-	=13-	=13-	=13-
*	*	*lig	*	*	*
!LO:SIC:v:s=1B-	!	!	!	!LO:SIC:v:t=custos c	!
1B	.	1G	iu-	1g	.
!	!	!	!	!LO:LB:g=original	!
1A	.	1A	.	1c	et
*	*	*Xlig	*	*	*
=14-	=14-	=14-	=14-	=14-	=14-
!	!	!LO:SIC:v:s=0B-	!	!	!
2G\	.	0B	.	1d	iu-
1F	.	.	.	.	.
.	.	.	.	2d/	.
!LO:SIC:v:t=custos F	!	!	!	!	!
2E/	.	.	.	2e\	.
!LO:LB:g=original	!	!	!	!	!
=15-	=15-	=15-	=15-	=15-	=15-
*clefF4	*	*	*	*	*
1F	.	1A	-ſtum	1c	.
2C/	.	1G	.	2e\	.
1E\	.	.	.	1g\	.
=16-	=16-	=16-	=16-	=16-	=16-
.	.	0G	.	.	.
2D/	.	.	.	1f	.
1C	.	.	.	.	.
.	.	.	.	2e\	.
=17-	=17-	=17-	=17-	=17-	=17-
2D/	.	[0F;l	est	2f\	.
!LO:SIC:v:s=2BB-/	!	!	!	!	!
2BB/	.	.	.	2d/	.
1F	-ſt(um)	.	.	1c	.
=18-	=18-	=18-	=18-	=18-	=18-
!LO:SIC:v:s=0BB-	!	!	!	!	!
0BB	.	0F_	.	1B-	.
.	.	.	.	1d	.
=19-	=19-	=19-	=19-	=19-	=19-
0FF;l	eſt	0F]	.	1c	-ſtu(m)
.	.	.	.	1c;l	eſt
!	!	!LO:LB:g=original	!	!LO:LB:g=original	!
=20-	=20-	=20-	=20-	=20-	=20-
*	*	*	*	*k[]	*
1F	Sed	1F	Sed	1c	Sed
1D	li-	1F	li-	2d/	li-
.	.	.	.	1f\	-be-
=21-	=21-	=21-	=21-	=21-	=21-
1C	-be-	1G	-be-	.	.
.	.	.	.	2e\	.
1FF	-ra	1A	-ra	1f	-ra
=22-	=22-	=22-	=22-	=22-	=22-
!LO:SIC:v:s=1BB-	!	!	!	!	!
1BB	nos	1F	nos	1d	nos
1GG	a-	1G	a-	1d	a-
=23-	=23-	=23-	=23-	=23-	=23-
2C/	-ma-	0G	-ma-	2e\	-ma-
!LO:SIC:v:s=2BB-/	!	!	!	!	!
2BB/	.	.	.	1f	.
1C	.	.	.	.	.
.	.	.	.	2e\	.
=24-	=24-	=24-	=24-	=24-	=24-
0FF;l	-lo	0F;	-lo	1f	.
.	.	.	.	1f;<l	-lo
!LO:LB:g=original	!	!LO:LB:g=original	!	!LO:LB:g=original	!
=25-	=25-	=25-	=25-	=25-	=25-
*	*	*	*	*	*color:red
1C	De-	1c	De-	1c	De-
1F	.	1A	-o	2c/	-o
.	.	.	.	1f\	gra-
=26-	=26-	=26-	=26-	=26-	=26-
1C	-o	1G	gra-	.	.
.	.	.	.	2e\	.
1D	gra-	1F	-ti-	2d\	.
.	.	.	.	1f\	.
=27-	=27-	=27-	=27-	=27-	=27-
*	*	*lig	*	*	*
2E/	-ti-	1G	-as	.	.
2C/	-as	.	.	1e	.
1D	.	1F	.	.	.
.	.	.	.	2d/	.
*	*	*Xlig	*	*	*
=28-	=28-	=28-	=28-	=28-	=28-
1AA	.	[0E;l	.	2e\	.
.	.	.	.	2c/	.
1E	.	.	.	1B	.
=29-	=29-	=29-	=29-	=29-	=29-
2AA/	.	0E_	.	2A/	.
1E	.	.	.	2G/	.
.	.	.	.	2A/	.
2D/	.	.	.	2B/	.
=30-	=30-	=30-	=30-	=30-	=30-
!	!	!LO:TX:a:t=ad benedicti\nonem:color=red	!	!	!
2C/	.	0E]	.	1c	-ti-
2AA/	.	.	.	.	.
!LO:TX:a:t=ad bene\ndictione:color=red	!	!	!	!LO:TX:a:t=ad b(ene)dicti(onem):color=red	!
1E;<l	.	.	.	1Bl;	-aſ
==	==	==	==	==	==
*-	*-	*-	*-	*-	*-
!!!system-decoration: [(s1,s2,s3)]
!!!ENC: Berenika Jozajtis
!!!END: 2021-12-31
!!!RDF**kern: < = below
!!!RDF**kern: l = terminal long
!!!EED: Andrzej Borzym
!!!EST: 2021-12-30
